X: 18727
T: Ice House Schottische
R: barndance
M: 4/4
K: Cmajor
|:ef g2 ef g2-|gcde fedc|e4 f4|dc d2- d4|
ef g2 ef g2-|gcde fedc|e4 f4|dc d2- d4:|
K:Gm
|:cgfe c2 cB|c2 cB cdef|ggfe c2 cg|fecB c4|
cgfe c2 cB|c2 cB cdef|ggfe c2 cg|fecB c4:|

